X: 32692
T: Policeman's Request, The
R: reel
M: 4/4
K: Gminor
|:DGGD GABG|dgga gfdf|F2FA cFAc|dAcA GAD2|
DGGD GABG|dgga gfdf|F2FA cFAc|dAcA BGG2:|
|:dggf gabg|agf^^e fgfd|cAfA gAfA|cdfa gfdc|
dggf gabg|agf^^e fgfd|cFAc FABc|dcBA BGG2:|

